X: 6
T:Red Wing
M:4/4
L:1/4
C:
S:AB form
R:Key of G
K:G
D|GG/2G/2GB|d3B|cege|d3B|cBAc|BAGB|AEFG|A/2B/2A/2F/2ED|GGGB|d3B|cege|
d3B|ccAc|BBGB|AEFD||!
||Gzgf|e2ee|egfe|d2B2|Bded|d2A2|Aded|d2B2|B2gf|e2ee|egfe|
d2B2|Bded|d2A2|AcBA|G4|G2||
